assets/tabImg/advisory_selected.svg

<svg height="32" viewBox="0 0 1024 1024" width="32" xmlns="http://www.w3.org/2000/svg"><path d="m512 128c-212.1 0-384 171.9-384 384v360c0 13.3 10.7 24 24 24h184c35.3 0 64-28.7 64-64v-208c0-35.3-28.7-64-64-64h-136v-48c0-172.3 139.7-312 312-312s312 139.7 312 312v48h-136c-35.3 0-64 28.7-64 64v208c0 35.3 28.7 64 64 64h184c13.3 0 24-10.7 24-24v-360c0-212.1-171.9-384-384-384zm-184 504v192h-128v-192zm496 192h-128v-192h128z" fill="#d3a468"/></svg>

<?xml version="1.0" standalone="no"?><!DOCTYPE svg PUBLIC "-//W3C//DTD SVG 1.1//EN" "http://www.w3.org/Graphics/SVG/1.1/DTD/svg11.dtd"><svg t="1566871024489" class="icon" viewBox="0 0 1024 1024" version="1.1" xmlns="http://www.w3.org/2000/svg" p-id="3395" xmlns:xlink="http://www.w3.org/1999/xlink" width="32" height="32"><defs><style type="text/css"></style></defs><path d="M512 128c-212.1 0-384 171.9-384 384v360c0 13.3 10.7 24 24 24h184c35.3 0 64-28.7 64-64V624c0-35.3-28.7-64-64-64H200v-48c0-172.3 139.7-312 312-312s312 139.7 312 312v48H688c-35.3 0-64 28.7-64 64v208c0 35.3 28.7 64 64 64h184c13.3 0 24-10.7 24-24V512c0-212.1-171.9-384-384-384zM328 632v192H200V632h128z m496 192H696V632h128v192z" p-id="3396" fill="#D3A468"></path></svg>
